en/_assets/wiki/svg/wysiwyg/section-two-cells.svg

<svg xmlns="http://www.w3.org/2000/svg" xmlns:xlink="http://www.w3.org/1999/xlink" width="24" height="24" class="yc-icon" fill="currentColor" stroke="none" aria-hidden="true"><svg viewBox="0 0 24 24" fill="none" xmlns="http://www.w3.org/2000/svg"><path fill-rule="evenodd" clip-rule="evenodd" d="M4.5 8.5V15.5H9.5V8.5H4.5ZM14.5 8.5V15.5H19.5V8.5H14.5ZM3 8C3 7.44772 3.44772 7 4 7H10C10.5523 7 11 7.44772 11 8V16C11 16.5523 10.5523 17 10 17H4C3.44772 17 3 16.5523 3 16V8ZM13 8C13 7.44772 13.4477 7 14 7H20C20.5523 7 21 7.44772 21 8V16C21 16.5523 20.5523 17 20 17H14C13.4477 17 13 16.5523 13 16V8Z" fill="currentColor"></path></svg></svg>

<svg xmlns="http://www.w3.org/2000/svg" width="24" height="24" fill="currentColor" aria-hidden="true" class="yc-icon">
    <svg xmlns="http://www.w3.org/2000/svg" fill="none" viewBox="0 0 24 24">
        <path fill="currentColor" fill-rule="evenodd" d="M4.5 8.5v7h5v-7h-5Zm10 0v7h5v-7h-5ZM3 8a1 1 0 0 1 1-1h6a1 1 0 0 1 1 1v8a1 1 0 0 1-1 1H4a1 1 0 0 1-1-1V8Zm10 0a1 1 0 0 1 1-1h6a1 1 0 0 1 1 1v8a1 1 0 0 1-1 1h-6a1 1 0 0 1-1-1V8Z" clip-rule="evenodd"/>
    </svg>
</svg>
